Adwaita++-Light/panel/16/fcitx-shuangpin-panel.svg

<svg height="16" width="16" xmlns="http://www.w3.org/2000/svg">
  <path d="m2 0c-1.108 0-2 .892-2 2v12c0 1.108.892 2 2 2h12c1.108 0 2-.892 2-2v-12c0-1.108-.892-2-2-2zm0 2h5.5488l-.0508.5508s-.3276 3.5189-1.2246 6.1289c.583.87 1.1389 1.7693 1.8379 3.0093l-.8691.491c-.539-.95-.9839-1.689-1.4219-2.3695-1.394 3.1205-3.3652 4.4825-3.3652 4.4825l-.5567-.832s1.9707-1.31 3.2637-4.6505c-.765-1.11-1.6347-2.23-3.0527-4l.7812-.621c1.181 1.47 1.973 2.4911 2.668 3.4511.551-1.9.7981-4.0006.8691-4.6406h-4.4277zm6 0h6v.5c0 2.15-.833 4.9702-1.707 6.9102-.111.25-.242.4594-.367.6898.624 1.09 1.46 2.12 2.844 3.232l-.627.779c-1.282-1.034-2.147-2.04-2.803-3.06-1.3932 1.984-3.1037 3.033-3.1037 3.033l-.5175-.855s1.7803-1.099 3.0682-3.139c-.338-.6502-.621-1.3102-.8866-2.0002-.758-1.95-1.2086-4.4998-1.3106-5.0898h-.5898zm1.6074 1c.14.77.5686 3.0305 1.2266 4.7305.173.45.351.8693.539 1.2793.757-1.68 1.442-4.1598 1.551-6.0098z" fill="#444"/>
</svg>

<svg xmlns="http://www.w3.org/2000/svg" width="16" height="16" version="1.1">
 <defs>
  <style id="current-color-scheme" type="text/css">
   .ColorScheme-Text { color:#444444; } .ColorScheme-Highlight { color:#4285f4; }
  </style>
 </defs>
 <path style="fill:currentColor" class="ColorScheme-Text" d="M 2 0 C 0.892 0 0 0.892 0 2 L 0 14 C 0 15.108 0.892 16 2 16 L 14 16 C 15.108 16 16 15.108 16 14 L 16 2 C 16 0.892 15.108 0 14 0 L 2 0 z M 2 2 L 7.5488 2 L 7.498 2.5508 C 7.498 2.5508 7.1704 6.0697 6.2734 8.6797 C 6.8564 9.5497 7.4123 10.449 8.1113 11.689 L 7.2422 12.18 C 6.7032 11.23 6.2583 10.491 5.8203 9.8105 C 4.4263 12.931 2.4551 14.293 2.4551 14.293 L 1.8984 13.461 C 1.8984 13.461 3.8691 12.151 5.1621 8.8105 C 4.3971 7.7005 3.5274 6.5805 2.1094 4.8105 L 2.8906 4.1895 C 4.0716 5.6595 4.8636 6.6806 5.5586 7.6406 C 6.1096 5.7406 6.3567 3.64 6.4277 3 L 2 3 L 2 2 z M 8 2 L 14 2 L 14 2.5 C 14 4.65 13.167 7.4702 12.293 9.4102 C 12.182 9.6602 12.051 9.8696 11.926 10.1 C 12.55 11.19 13.386 12.22 14.77 13.332 L 14.143 14.111 C 12.861 13.077 11.996 12.071 11.34 11.051 C 9.9468 13.035 8.2363 14.084 8.2363 14.084 L 7.7188 13.229 C 7.7188 13.229 9.4991 12.13 10.787 10.09 C 10.449 9.4398 10.166 8.7798 9.9004 8.0898 C 9.1424 6.1398 8.6918 3.59 8.5898 3 L 8 3 L 8 2 z M 9.6074 3 C 9.7474 3.77 10.176 6.0305 10.834 7.7305 C 11.007 8.1805 11.185 8.5998 11.373 9.0098 C 12.13 7.3298 12.815 4.85 12.924 3 L 9.6074 3 z"/>
</svg>
